icons/math-function.svg

<svg
  width="24"
  height="24"
  viewBox="0 0 24 24"
  xmlns="http://www.w3.org/2000/svg"
  fill="none"
  stroke="currentColor"
  stroke-width="2"
  stroke-linecap="round"
  stroke-linejoin="round"
>
  <path d="M14 10h1c1 0 1 1 2.016 3.527C18 16 18 17 19 17h1" />
  <path d="M13 17c1.5 0 3-2 4-3.5s2.5-3.5 4-3.5" />
  <path d="M3 19c0 1.5.5 2 2 2s2-4 3-9 1.5-9 3-9 2 .5 2 2" />
  <path d="M5 12h6" />
</svg>

<svg width="24" height="24" viewBox="0 0 24 24" fill="none" xmlns="http://www.w3.org/2000/svg">
<path d="M14 10H15C16 10 16 11 17.016 13.527C18 16 18 17 19 17H20" stroke="white" stroke-width="2" stroke-linecap="round" stroke-linejoin="round"/>
<path d="M13 17C14.5 17 16 15 17 13.5C18 12 19.5 10 21 10" stroke="white" stroke-width="2" stroke-linecap="round" stroke-linejoin="round"/>
<path d="M3 19C3 20.5 3.5 21 5 21C6.5 21 7 17 8 12C9 7 9.5 3 11 3C12.5 3 13 3.5 13 5" stroke="white" stroke-width="2" stroke-linecap="round" stroke-linejoin="round"/>
<path d="M5 12H11" stroke="white" stroke-width="2" stroke-linecap="round" stroke-linejoin="round"/>
</svg>
